X:75
T:The Lochmaben Harper
T:set already
Z:Jack Campin - http://www.campin.me.uk
S:Blaikie MS (NLS MS.1578) p22, Blaikie #69
M:6/8
L:1/8
V:1 midi program 1 74
V:2 midi program 1 46 bass middle = d transpose -24
Q:3/8=80
K:B Minor
[V:1]   B2c ddB|e2 d ccA|B2c d2B|e2d c2
[V:2]   G3  g3 |c'2b a2d|g2a b2g|c2B A2
%
[V:1] A|BBc ddB|eed  ccA|F2F F2E|Fdc B2
[V:2] d|G2g G2g|c'2b a2d|D3  d3 |d2f g2
%
[V:1] A|F2F FFA|E2E  EEA|F2F FFE|F2A B3|]
[V:2] f|d3  d2d|A3   c3 |d3  z3 |d3  g3|]
W:Transcription (c) Jack Campin 2009, no mirroring or republication without permission

